!!!OTL: Nachtigall als Warnerin Dort oben vor meines Vaters Haus,
!!!ARE: Europa, Mitteleuropa, Deutschland (BRD), Hessen, Nassau
!!!YOR: 6, S. 234
!!    ????
!!!SCT: Q0137E
!!!YEM: Copyright 1995, estate of Helmut Schaffrath.
**kern
*ICvox
*Ivox
*M3/4
*k[]
*C:
{4g
=1
4.e
8e
4e
=2
2g
4g
=3
2cc
4cc
=4
2g}
{4cc
=5
4a
4a
4cc
=6
2b
4dd
=7
2.dd
=8
2cc}
{4g
=9
4ee
4dd
4cc
=10
4ee
4dd
4cc
=11
2b
4a
=12
2a}
{4a
=13
2b
4b
=14
2b
4dd
=15
2.dd
=16
2cc}
==
!!!AGN: Ballade, Allegorie; lyrisch (?)
!! Zweistimmig notiert, Unterstimme kodiert.
!!!ONB: ESAC (Essen Associative Code) Database: BALLADE
!!!AMT: simple triple
!!!AIN: vox
!!!EED: Helmut Schaffrath
!!!EEV: 1.0
*-
